Sources/FrostedUI/Resources/Icons.xcassets/home24.imageset/home-24.svg

<svg width="24" height="24" viewBox="0 0 24 24" fill="none" xmlns="http://www.w3.org/2000/svg" data-fui-icon="true">
  <path
    d="M12 1C12.7358 1 13.4498 1.25035 14.0244 1.70996L21.9678 8.06348C22.6201 8.58526 22.9999 9.37562 23 10.2109V21.25C23 22.2165 22.2165 23 21.25 23H17.25C16.2835 23 15.5 22.2165 15.5 21.25V17.5C15.5 15.567 13.933 14 12 14C10.067 14 8.50001 15.567 8.5 17.5V21.25C8.5 22.2165 7.7165 23 6.75 23H2.75C1.7835 23 1 22.2165 1 21.25V10.2109C1.00013 9.37562 1.37991 8.58526 2.03223 8.06348L9.97559 1.70996C10.5502 1.25035 11.2642 1 12 1ZM12 2.5C11.6047 2.5 11.2208 2.63492 10.9121 2.88184L2.96875 9.23535C2.67251 9.47248 2.50013 9.83148 2.5 10.2109V21.25C2.5 21.3881 2.61193 21.5 2.75 21.5H6.75C6.88807 21.5 7 21.3881 7 21.25V17.5C7.00001 14.7386 9.23858 12.5 12 12.5C14.7614 12.5 17 14.7386 17 17.5V21.25C17 21.3881 17.1119 21.5 17.25 21.5H21.25C21.3881 21.5 21.5 21.3881 21.5 21.25V10.2109C21.4999 9.83148 21.3275 9.47248 21.0312 9.23535L13.0879 2.88184C12.7792 2.63492 12.3953 2.5 12 2.5Z"
    fill="currentColor"
  />
</svg>

<svg xmlns="http://www.w3.org/2000/svg" width="24" height="24" fill="none" data-fui-icon="true" viewBox="0 0 24 24"><path fill="currentColor" d="M12 1c.736 0 1.45.25 2.024.71l7.944 6.353A2.75 2.75 0 0 1 23 10.211V21.25A1.75 1.75 0 0 1 21.25 23h-4a1.75 1.75 0 0 1-1.75-1.75V17.5a3.5 3.5 0 1 0-7 0v3.75A1.75 1.75 0 0 1 6.75 23h-4A1.75 1.75 0 0 1 1 21.25V10.21c0-.834.38-1.625 1.032-2.147L9.976 1.71A3.24 3.24 0 0 1 12 1m0 1.5c-.395 0-.78.135-1.088.382L2.97 9.235a1.25 1.25 0 0 0-.469.976V21.25c0 .138.112.25.25.25h4a.25.25 0 0 0 .25-.25V17.5a5 5 0 0 1 10 0v3.75c0 .138.112.25.25.25h4a.25.25 0 0 0 .25-.25V10.21c0-.379-.172-.738-.469-.975l-7.943-6.353A1.74 1.74 0 0 0 12 2.5"/></svg>
